X:1
T: Impertinence
N:
C:Music by G.F. Handel
S:adapted by Fried de Metz Herman
A:
O:
R:
M:4/4
K:Am
I:speed 220
%W:
% voice 1 (1 lines, 27 notes)
K:Am
M:4/4
L:1/16
E4 |A4 c4 B4 A2 ^G2 |A8 E8 |B2 c2 d4 c4 B4 |c8 A8 |c2 d2 e4 d4 c4 |d8 G4 e4 |f8 d8 |e12 E4 |
%W:
% voice 1 (1 lines, 26 notes)
A4 c4 B4 A2 ^G2 |A8 E8 |B2 c2 d4 c4 B4 |c8 A8 |c2 d2 e4 d4 c4 |d8 G4 e4 |f8 d8 |e12 e4 |
%W:
% voice 1 (1 lines, 31 notes)
e2 f2 g4 f4 e4 |f8 d8 |d2 e2 f4 e4 d4 |e8 c8 |c2 d2 e4 d4 c4 |B2 c2 d4 c4 B4 |c4 B2 c2 A4 A4 |^G8 E8 |
%W:
% voice 1 (1 lines, 31 notes)
A4 B4 c2 B2 A2 ^G2 |A8 E8 |f2 e2 d2 c2 B6 c2 |d8 ^G8 |A4 B4 c2 B2 A2 ^G2 |A6 B2 c8 |f2 e2 d2 c2 B8 |A12 ||
